openmetadata-ui/src/main/resources/ui/src/assets/svg/fail-badge.svg

<svg viewBox="0 0 16 16" fill="none" xmlns="http://www.w3.org/2000/svg">
<path d="M8.00004 15.6666C3.77283 15.6666 0.333374 12.2272 0.333374 7.99998C0.333374 3.77277 3.77283 0.333313 8.00004 0.333313C12.2272 0.333313 15.6667 3.77277 15.6667 7.99998C15.6667 12.2272 12.2272 15.6666 8.00004 15.6666ZM8.00004 1.29165C4.30087 1.29165 1.29171 4.30081 1.29171 7.99998C1.29171 11.6991 4.30087 14.7083 8.00004 14.7083C11.6992 14.7083 14.7084 11.6991 14.7084 7.99998C14.7084 4.30081 11.6992 1.29165 8.00004 1.29165ZM10.4562 10.9468C10.3331 10.9468 10.2104 10.8999 10.1165 10.806L7.99857 8.67751L5.87062 10.7959C5.68231 10.9823 5.37948 10.9814 5.1926 10.7945C5.00621 10.6066 5.00669 10.3033 5.19404 10.1164L7.32251 7.99851L5.2041 5.87056C5.01771 5.68273 5.01819 5.37942 5.20554 5.19254C5.39337 5.00567 5.69621 5.00663 5.88356 5.19398L8.00151 7.32245L10.1294 5.20404C10.3173 5.01717 10.6201 5.01813 10.8075 5.20548C10.9938 5.39331 10.9934 5.69663 10.806 5.8835L8.67757 8.00145L10.796 10.1294C10.9824 10.3172 10.9819 10.6205 10.7946 10.8074C10.7006 10.9004 10.5784 10.9468 10.4562 10.9468Z" fill="#CB2431" stroke="#CB2431" stroke-width="0.5"/>
</svg>

<svg xmlns="http://www.w3.org/2000/svg" fill="none" viewBox="0 0 16 16"><path fill="#CB2431" stroke="#CB2431" stroke-width=".5" d="M8 15.667C3.773 15.667.333 12.227.333 8S3.773.333 8 .333 15.667 3.773 15.667 8 12.227 15.667 8 15.667ZM8 1.292C4.3 1.292 1.292 4.3 1.292 8c0 3.7 3.009 6.708 6.708 6.708 3.7 0 6.708-3.009 6.708-6.708 0-3.7-3.009-6.708-6.708-6.708Zm2.456 9.655a.479.479 0 0 1-.34-.141L8 8.678 5.87 10.796a.48.48 0 0 1-.677-.68L7.323 8 5.204 5.87a.48.48 0 0 1 .68-.677l2.118 2.128 2.127-2.118a.48.48 0 0 1 .677.68L8.678 8l2.118 2.128a.48.48 0 0 1-.34.818Z"/></svg>
